icons/IPFS-Light.svg

<svg width="256" height="256" viewBox="0 0 256 256" fill="none" xmlns="http://www.w3.org/2000/svg">
<rect width="256" height="256" rx="60" fill="white"/>
<path d="M42 177.461L128.287 227.281L214.573 177.461V77.8202L128.287 28L42 77.8202V177.461Z" fill="#469EA2"/>
<path d="M119.453 39.916L56.7921 76.0742C56.8948 77.2018 56.8948 78.3364 56.7921 79.464L119.35 115.622C121.922 113.72 125.036 112.694 128.235 112.694C131.434 112.694 134.549 113.72 137.121 115.622L199.679 79.464C199.576 78.3364 199.576 77.2018 199.679 76.0742L137.224 39.916C134.651 41.8177 131.537 42.844 128.338 42.844C125.139 42.844 122.025 41.8177 119.453 39.916ZM205.739 89.4281L143.079 125.997C143.418 129.169 142.747 132.367 141.16 135.134C139.574 137.901 137.153 140.096 134.245 141.405L134.347 213.311C135.36 213.758 136.324 214.308 137.224 214.954L199.781 178.796C199.442 175.625 200.113 172.427 201.7 169.66C203.286 166.892 205.707 164.697 208.615 163.388V91.0716C207.614 90.6021 206.652 90.0524 205.739 89.4281ZM50.8342 89.8389C49.935 90.4849 48.9711 91.0357 47.958 91.4825V163.799C50.9022 165.062 53.3561 167.248 54.9495 170.027C56.543 172.806 57.1897 176.028 56.7921 179.207L119.35 215.365C120.249 214.719 121.213 214.169 122.226 213.722V141.405C119.282 140.142 116.828 137.957 115.235 135.177C113.641 132.398 112.994 129.176 113.392 125.997L50.8342 89.8389Z" fill="#6ACAD1"/>
<path d="M128.287 38.7859L205.431 83.3673V172.427L128.287 217.009L51.1423 172.427V83.2646L128.287 38.7859ZM128.287 28.2056L42 78.0258V177.666L128.287 227.486L214.573 177.666V78.0258L128.287 28.2056Z" fill="#469EA2"/>
<path d="M128.903 144.59H127.67C125.551 144.595 123.451 144.182 121.492 143.373C119.533 142.565 117.753 141.377 116.254 139.878C114.756 138.38 113.568 136.6 112.759 134.64C111.951 132.681 111.537 130.582 111.543 128.462V127.23C111.537 125.11 111.951 123.011 112.759 121.052C113.568 119.092 114.756 117.312 116.254 115.814C117.753 114.315 119.533 113.127 121.492 112.319C123.451 111.51 125.551 111.097 127.67 111.102H128.903C131.022 111.097 133.122 111.51 135.081 112.319C137.04 113.127 138.82 114.315 140.319 115.814C141.817 117.312 143.005 119.092 143.814 121.052C144.622 123.011 145.036 125.11 145.03 127.23V128.462C145.036 130.582 144.622 132.681 143.814 134.64C143.005 136.6 141.817 138.38 140.319 139.878C138.82 141.377 137.04 142.565 135.081 143.373C133.122 144.182 131.022 144.595 128.903 144.59ZM128.903 210.845H127.67C124.805 210.837 121.99 211.594 119.515 213.039C117.041 214.484 114.998 216.564 113.597 219.063L128.287 227.486L142.976 219.063C141.575 216.564 139.532 214.484 137.058 213.039C134.584 211.594 131.768 210.837 128.903 210.845ZM214.676 161.025H214.059C211.94 161.02 209.841 161.433 207.881 162.242C205.922 163.05 204.142 164.238 202.644 165.737C201.145 167.235 199.957 169.015 199.149 170.975C198.34 172.934 197.927 175.033 197.932 177.153V178.385C197.917 181.123 198.626 183.816 199.987 186.192L214.676 177.666V161.025ZM199.987 69.6026C198.638 71.9834 197.93 74.6733 197.932 77.4094V78.6421C197.927 80.7615 198.34 82.8611 199.149 84.8202C199.957 86.7793 201.145 88.5593 202.644 90.058C204.142 91.5566 205.922 92.7443 207.881 93.5529C209.841 94.3615 211.94 94.7749 214.059 94.7695H214.676V78.0258L199.987 69.6026ZM128.287 28.2056L113.597 36.6288C114.991 39.1418 117.03 41.2376 119.504 42.7002C121.978 44.1627 124.797 44.9391 127.67 44.9493H128.903C131.768 44.9579 134.584 44.2006 137.058 42.7558C139.532 41.3109 141.575 39.2311 142.976 36.7315L128.287 28.2056ZM56.6893 69.4998L42 78.0258V94.7695H42.6163C44.7357 94.7749 46.8353 94.3615 48.7944 93.5529C50.7535 92.7443 52.5335 91.5566 54.0322 90.058C55.5308 88.5593 56.7186 86.7793 57.5271 84.8202C58.3357 82.8611 58.7491 80.7615 58.7437 78.6421V77.4094C58.7089 74.6455 58.0039 71.9313 56.6893 69.4998ZM42.6163 161.025H42V177.666L56.6893 186.192C58.0377 183.811 58.7456 181.121 58.7437 178.385V177.153C58.7491 175.033 58.3357 172.934 57.5271 170.975C56.7186 169.015 55.5308 167.235 54.0322 165.737C52.5335 164.238 50.7535 163.05 48.7944 162.242C46.8353 161.433 44.7357 161.02 42.6163 161.025Z" fill="#469EA2"/>
<path d="M128.287 228V128.257L42 78.437V178.18L128.287 228Z" fill="#083B54" fill-opacity="0.15"/>
<path d="M214.675 177.255V77.6147L128.389 127.435V227.178L214.675 177.255Z" fill="#083B54" fill-opacity="0.05"/>
</svg>

<svg xmlns="http://www.w3.org/2000/svg" width="256" height="256" fill="none" viewBox="0 0 256 256"><rect width="256" height="256" fill="#fff" rx="60"/><path fill="#469EA2" d="m42 177.46 86.29 49.82 86.28-49.82V77.82L128.3 28 42 77.82z"/><path fill="#6ACAD1" d="M119.45 39.92 56.8 76.07q.15 1.7 0 3.4l62.56 36.15a14.9 14.9 0 0 1 17.77 0l62.56-36.16q-.15-1.69 0-3.39l-62.46-36.15a14.95 14.95 0 0 1-17.77 0m86.29 49.5L143.08 126a15.1 15.1 0 0 1-8.84 15.4l.1 71.91q1.53.68 2.88 1.64l62.56-36.15a15.1 15.1 0 0 1 8.84-15.41V91.07q-1.5-.7-2.88-1.64m-154.9.42q-1.36.97-2.88 1.64v72.32a14.8 14.8 0 0 1 8.83 15.4l62.56 36.17q1.35-.97 2.88-1.65v-72.31a14.8 14.8 0 0 1-8.84-15.41z"/><path fill="#469EA2" d="m128.29 38.79 77.14 44.58v89.06L128.3 217l-77.15-44.58V83.26zm0-10.58L42 78.03v99.64l86.29 49.82 86.28-49.82V78.03z"/><path fill="#469EA2" d="M128.9 144.59h-1.23a16.1 16.1 0 0 1-16.13-16.13v-1.23a16.1 16.1 0 0 1 16.13-16.13h1.23a16.1 16.1 0 0 1 16.13 16.13v1.23a16.1 16.1 0 0 1-16.13 16.13m0 66.26h-1.23a16.1 16.1 0 0 0-14.07 8.21l14.69 8.43 14.69-8.43a16.1 16.1 0 0 0-14.08-8.22m85.78-49.82h-.62a16.1 16.1 0 0 0-16.13 16.12v1.23a15.6 15.6 0 0 0 2.06 7.81l14.69-8.52zm-14.7-91.43a16 16 0 0 0-2.05 7.8v1.24a16.1 16.1 0 0 0 16.13 16.13h.62V78.03zm-71.7-41.4-14.68 8.43a16.2 16.2 0 0 0 14.07 8.32h1.23a16.1 16.1 0 0 0 14.08-8.22zm-71.6 41.3L42 78.03v16.74h.62a16.1 16.1 0 0 0 16.12-16.13v-1.23a17 17 0 0 0-2.05-7.91m-14.06 91.53H42v16.64l14.69 8.52a16 16 0 0 0 2.05-7.8v-1.24a16.1 16.1 0 0 0-16.12-16.12"/><path fill="#083B54" fill-opacity=".15" d="M128.29 228v-99.74L42 78.44v99.74z"/><path fill="#083B54" fill-opacity=".05" d="M214.68 177.26V77.6l-86.3 49.83v99.74z"/></svg>
